public/avatar/shoe/111.svg

<svg xmlns:xlink="http://www.w3.org/1999/xlink" height="38.3" width="36.05" xmlns="http://www.w3.org/2000/svg"><use height="23.45" transform="translate(5.2 9.05)" width="27.8" xlink:href="#a"/><defs><g id="a"><path d="M-11.5 14.85q-1.2 1.2-2.95 1.2-1.7 0-2.95-1.2-1.2-1.15-1.2-2.8t1.2-2.8q1.25-1.2 2.95-1.2 1.7 0 2.95 1.2 1.2 1.15 1.2 2.8t-1.2 2.8" fill="#49022e" fill-rule="evenodd" transform="translate(18.6 5.8)"/><path d="M-14.45 15q-3.2 0-3.2-3t3.2-3q3.2 0 3.2 3t-3.2 3" fill="#fff" fill-rule="evenodd" transform="translate(18.6 5.8)"/><path d="M-11.25 12q0 3-3.2 3-2.15 0-2.95-1.8l2.4.5q-1.35-2.75 1.7-4.5 2.05.85 2.05 2.8" fill="#fec6fd" fill-rule="evenodd" transform="translate(18.6 5.8)"/><path d="M6.65 15.3q-3.1-.65-3.5 2.5-.45 3.15 2.9 2.95" fill="none" stroke="#5c1d3f" stroke-linecap="round" stroke-linejoin="round" stroke-width=".4"/><path d="m-7.75 15-6-1.55q-.95-.35-.7-1.6.25-1.1 1.1-.95h.05l6.7 1.2.2.1q.45.8-1.1 2.75l-.25.05" fill="#61170e" fill-rule="evenodd" transform="translate(18.6 5.8)"/><path d="M-14.05 12q.2-.65.6-.7l6.85 1.1q.45.7-.9 2.15l-6.05-1.5q-.6-.3-.5-1.05" fill="#b82d20" fill-rule="evenodd" transform="translate(18.6 5.8)"/><path d="m4.35 10.5.2.15q.5.85-1.05 2.75l-.25.05q-5.1-1-6.05-1.55-.95-.35-.75-1.6.3-1.05 1.15-1.05v.05l6.75 1.2" fill="#61170e" fill-rule="evenodd" transform="translate(18.6 5.8)"/><path d="M4.35 10.8q.45.75-.9 2.2l-6-1.5q-.6-.3-.5-1.05.1-.65.6-.7l6.8 1.05" fill="#b82d20" fill-rule="evenodd" transform="translate(18.6 5.8)"/><path d="M-5.75-3.85q1.95-1 5.05-1.1Q3.6-5.2 5.1-2.8 6.5-.7 6.55 4.3q.05 4.55-.65 5.1-1.5 1.2-7.3 1.9-7.4.95-13.45-.85l-.35-.35q-.8-3.85.3-4.8l4.05-4.3 5.1-4.85" fill="#49022e" fill-rule="evenodd" transform="translate(18.6 5.8)"/><path d="M-.7-4.1q3.65-.25 4.95 1.85 2.1 3.25.9 10.9-1.4 1.15-6.75 1.8-6.85.85-12.75-.9-.45-2.35.25-3.55 5.7-6.75 8.9-9.05 1.8-.9 4.5-1.05" fill="#fff" fill-rule="evenodd" transform="translate(18.6 5.8)"/><path d="M-3.65 7.5q.8 1.65-1 3.2-4.95.25-9.25-1l-.3-2.4q.25-2.4 1.15-.6.45 1 2.45 1.3 1.95.3 3.35-.5 2.75-1.6 3.6 0M4.5 5.2q1.8.6.15 3.65L4.5 9 .6 10.1Q.5 8.85 2.4 7.4 4.35 6 4.5 5.2" fill="#fec6fd" fill-rule="evenodd" transform="translate(18.6 5.8)"/><path d="M6.35 2.2q.55 1.85-.3 2.2-2.8-.3-4.85 1.7Q.25 7 .15 8.4q3.6-.05 6.15-1.85h.25l.1.2L6 9.6q-11.35 4.45-21.35.9l-.2-.1q-.9-1.75-.1-2.8l.3-.1q6.55 1.95 12.3 1.2l.1-.9q0-.9-.45-1.65Q-4.15 5.2-5.75 5l-.05-.05q-.45-.2-.45-.6L-6.1 4q.45-1.3 1.6-1.05l.2.05Q.2 4.95 5.45 1.2h.2q.55 0 .7 1" fill="#61170e" fill-rule="evenodd" transform="translate(18.6 5.8)"/><path d="M5.45 8.9Q3.9 10-.9 10.6q-6.9.95-13.85-.85-.7-.5-.25-1.25 5.25 2.1 12.8 1 .45-1.6-.05-3.2-.7-1.9-2.6-2.1-2-1.25.05-.7Q-1.35 6 4.95 2.4q.45 1.05 0 1.2-5.65.85-5.6 5.8 3.65.05 6.55-2l-.45 1.5" fill="#e23725" fill-rule="evenodd" transform="translate(18.6 5.8)"/><path d="m-10.05-.2.1-.1q4.25-2 7.1 1.35.65.65.35 1.15l-5 4.65q-.3.35-.65 0-1.3-1.2-3.35-1.5l-2.65.2-.6-.15q-.25-.35 0-.6 2-2.8 4.7-5" fill="#61170e" fill-rule="evenodd" transform="translate(18.6 5.8)"/><path d="M-7.85 5.85q-3.35-2.1-5.4-1.35 1.9-2.25 4.15-4.1l4.35-.15q1.65.95 1.2 1.55l-4.3 4.05" fill="#e23725" fill-rule="evenodd" transform="translate(18.6 5.8)"/><path d="M-7.85 5.85q-3.35-2.1-5.4-1.35 1.9-2.25 4.15-4.1l4.35-.15q1.65.95 1.2 1.55l-4.3 4.05" fill="#e23725" fill-rule="evenodd" transform="translate(18.6 5.8)"/><path d="M6.45-3.8q0 .75-.65 1.25 1.5.8 1.5 1.7v.1Q7.2.8 3.1 2.05q-5.35 1.5-7.05.1-3.2-2.2-6.25-1.05h-.4l-.3-.15-.3-1q0-.75.65-1.3.4-.45 1.55-.8-1-.6-1-1.4l.05-.4q.4-1.5 2.55-1.35h.15l5.15.3 6.2-.75.25-.05q1.9.3 2.1 1.75v.25" fill="#49022e" fill-rule="evenodd" transform="translate(18.6 5.8)"/><path d="M4.45-2.55q4 1.85-1.5 3.65l-6.05.3Q-6.3-.75-9.9.1q-.25-1 .9-1.65 1.1-.55 2.4-.4-1.8-.25-1.95-1.25-.2-1.05.9-1.2l5.5.35 6.35-.8q1.2.25 1.25 1.15.1.85-1 1.15" fill="#ff90c5" fill-rule="evenodd" transform="translate(18.6 5.8)"/><path d="M5.45-3.7q.1.85-1 1.15 4 1.85-1.5 3.65l-6.05.3Q-6.3-.75-9.9.1v-.15l2.95-.4 4.2.35q5.4.95 5-1.1-3.8.6-5.6 0 3.4 0 5.9-1.7 1-.7.9-1.7l.75-.25q1.2.25 1.25 1.15" fill="#c36bb8" fill-rule="evenodd" transform="translate(18.6 5.8)"/><path d="M-8.15 16.55q-1.2-1.15-1.2-2.85 0-1.6 1.2-2.75 1.25-1.2 2.95-1.2 1.75 0 2.95 1.2Q-1 12.1-1 13.7q0 1.7-1.25 2.85-1.2 1.1-2.95 1.1-1.75 0-2.95-1.1" fill="#49022e" fill-rule="evenodd" transform="translate(18.6 5.8)"/><path d="M-5.2 16.7q-3.2 0-3.2-3t3.2-3q3.15 0 3.15 3t-3.15 3" fill="#fff" fill-rule="evenodd" transform="translate(18.6 5.8)"/><path d="M-6.05 15.2q0-3.6 2.4-4.15 1.6.9 1.6 2.65 0 3-3.15 3-2.05 0-2.9-1.75l2.05.25" fill="#fec6fd" fill-rule="evenodd" transform="translate(18.6 5.8)"/><path d="M15.9 17q-3.1-.7-3.55 2.5-.4 3.1 2.95 2.95" fill="none" stroke="#5c1d3f" stroke-linecap="round" stroke-linejoin="round" stroke-width=".4"/><path d="M2.05 14.45Q.85 13.3.85 11.6q0-1.6 1.2-2.75Q3.3 7.65 5 7.65q1.75 0 2.95 1.2Q9.2 10 9.2 11.6q0 1.7-1.25 2.85-1.2 1.1-2.95 1.1-1.75 0-2.95-1.1" fill="#49022e" fill-rule="evenodd" transform="translate(18.6 5.8)"/><path d="M5 14.6q-3.2 0-3.2-3t3.2-3q3.15 0 3.15 3T5 14.6" fill="#fff" fill-rule="evenodd" transform="translate(18.6 5.8)"/><path d="M4.15 13.15q0-3.6 2.4-4.15 1.6.9 1.6 2.65 0 3-3.15 3-2 0-2.9-1.75l2.05.25" fill="#fec6fd" fill-rule="evenodd" transform="translate(18.6 5.8)"/><path d="M26.1 14.9q-3.1-.7-3.55 2.5-.4 3.1 2.95 2.95" fill="none" stroke="#5c1d3f" stroke-linecap="round" stroke-linejoin="round" stroke-width=".4"/><path d="m-2.25-2.5-3.2-.5-2.95.2Q-8.75-4.35-5.55-4l7.6-.2q-1.6 1.8-4.3 1.7" fill="#ffe9e8" fill-rule="evenodd" transform="translate(18.6 5.8)"/><path d="M2.1 3.9v.2Q.3 4.75-.45 5.7q-.6.7-.8 1.5l-.05 1q-.05.5-.55.45.2-1.05 0-2.25-1.1-1.75-.9-2l2.3.1 2.55-.6" fill="#f5746e" fill-rule="evenodd" transform="translate(18.6 5.8)"/><path d="m-2.25 4.9 1.25.05-.55 1.15q-1-.5-.7-1.2" fill="#fff" fill-rule="evenodd" transform="translate(18.6 5.8)"/><path d="M-6.9 1.45q2.05.6 1.75 1.05l-1.6.15-1.4-.15q-1.85.4-2.2.7-1.2.9-1.65.8-.05-.55.75-1.65.75-1 1.3-1.25.95-.35 3.05.35" fill="#f5746e" fill-rule="evenodd" transform="translate(18.6 5.8)"/><path d="m-9.9 1.45 1.65-.05q.35.55-1.8 1l-1.1.8-.1-.7q.1-.5 1.35-1.05" fill="#fff" fill-rule="evenodd" transform="translate(18.6 5.8)"/></g></defs></svg>

<?xml version="1.0" encoding="UTF-8" standalone="no"?>
<svg xmlns:xlink="http://www.w3.org/1999/xlink" height="38.3px" width="36.05px" xmlns="http://www.w3.org/2000/svg">
  <g transform="matrix(1.0, 0.0, 0.0, 1.0, 23.8, 14.85)">
    <use height="23.45" transform="matrix(1.0, 0.0, 0.0, 1.0, -18.6, -5.8)" width="27.8" xlink:href="#shape0"/>
  </g>
  <defs>
    <g id="shape0" transform="matrix(1.0, 0.0, 0.0, 1.0, 18.6, 5.8)">
      <path d="M-11.5 14.85 Q-12.7 16.05 -14.45 16.05 -16.15 16.05 -17.4 14.85 -18.6 13.7 -18.6 12.05 -18.6 10.4 -17.4 9.25 -16.15 8.05 -14.45 8.05 -12.75 8.05 -11.5 9.25 -10.3 10.4 -10.3 12.05 -10.3 13.7 -11.5 14.85" fill="#49022e" fill-rule="evenodd" stroke="none"/>
      <path d="M-14.45 15.0 Q-17.65 15.0 -17.65 12.0 -17.65 9.0 -14.45 9.0 -11.25 9.0 -11.25 12.0 -11.25 15.0 -14.45 15.0" fill="#ffffff" fill-rule="evenodd" stroke="none"/>
      <path d="M-11.25 12.0 Q-11.25 15.0 -14.45 15.0 -16.6 15.0 -17.4 13.2 L-15.0 13.7 Q-16.35 10.95 -13.3 9.2 -11.25 10.05 -11.25 12.0" fill="#fec6fd" fill-rule="evenodd" stroke="none"/>
      <path d="M-11.95 9.5 Q-15.05 8.85 -15.45 12.0 -15.9 15.15 -12.55 14.95" fill="none" stroke="#5c1d3f" stroke-linecap="round" stroke-linejoin="round" stroke-width="0.4"/>
      <path d="M-7.75 15.0 L-13.75 13.45 Q-14.7 13.1 -14.45 11.85 -14.2 10.75 -13.35 10.9 L-13.3 10.9 -6.6 12.1 -6.4 12.2 Q-5.95 13.0 -7.5 14.95 L-7.75 15.0" fill="#61170e" fill-rule="evenodd" stroke="none"/>
      <path d="M-14.05 12.0 Q-13.85 11.35 -13.45 11.3 L-6.6 12.4 Q-6.15 13.1 -7.5 14.55 L-13.55 13.05 Q-14.15 12.75 -14.05 12.0" fill="#b82d20" fill-rule="evenodd" stroke="none"/>
      <path d="M4.35 10.5 L4.55 10.65 Q5.05 11.5 3.5 13.4 L3.25 13.45 Q-1.85 12.45 -2.8 11.9 -3.75 11.55 -3.55 10.3 -3.25 9.25 -2.4 9.25 L-2.4 9.3 4.35 10.5" fill="#61170e" fill-rule="evenodd" stroke="none"/>
      <path d="M4.35 10.8 Q4.8 11.55 3.45 13.0 L-2.55 11.5 Q-3.15 11.2 -3.05 10.45 -2.95 9.8 -2.45 9.75 L4.35 10.8" fill="#b82d20" fill-rule="evenodd" stroke="none"/>
      <path d="M-5.75 -3.85 Q-3.8 -4.85 -0.7 -4.95 3.6 -5.2 5.1 -2.8 6.5 -0.7 6.55 4.3 6.6 8.85 5.9 9.4 4.4 10.6 -1.4 11.3 -8.8 12.25 -14.85 10.45 L-15.2 10.1 Q-16.0 6.25 -14.9 5.3 L-10.85 1.0 -5.75 -3.85" fill="#49022e" fill-rule="evenodd" stroke="none"/>
      <path d="M-0.7 -4.1 Q2.95 -4.35 4.25 -2.25 6.35 1.0 5.15 8.65 3.75 9.8 -1.6 10.45 -8.45 11.3 -14.35 9.55 -14.8 7.2 -14.1 6.0 -8.4 -0.75 -5.2 -3.05 -3.4 -3.95 -0.7 -4.1" fill="#ffffff" fill-rule="evenodd" stroke="none"/>
      <path d="M-3.65 7.5 Q-2.85 9.15 -4.65 10.7 -9.6 10.95 -13.9 9.7 L-14.2 7.3 Q-13.95 4.9 -13.05 6.7 -12.6 7.7 -10.6 8.0 -8.65 8.3 -7.25 7.5 -4.5 5.9 -3.65 7.5" fill="#fec6fd" fill-rule="evenodd" stroke="none"/>
      <path d="M4.5 5.2 Q6.3 5.8 4.65 8.85 L4.5 9.0 0.6 10.1 Q0.5 8.85 2.4 7.4 4.35 6.0 4.5 5.2" fill="#fec6fd" fill-rule="evenodd" stroke="none"/>
      <path d="M6.35 2.2 Q6.9 4.05 6.05 4.4 3.25 4.1 1.2 6.1 0.25 7.0 0.15 8.4 3.75 8.35 6.3 6.55 L6.55 6.55 6.65 6.75 6.0 9.6 Q-5.35 14.05 -15.35 10.5 L-15.55 10.4 Q-16.45 8.65 -15.65 7.6 L-15.35 7.5 Q-8.8 9.45 -3.05 8.7 L-2.95 7.8 Q-2.95 6.9 -3.4 6.15 -4.15 5.2 -5.75 5.0 L-5.8 4.95 Q-6.25 4.75 -6.25 4.35 L-6.1 4.0 Q-5.65 2.7 -4.5 2.95 L-4.3 3.0 Q0.2 4.95 5.45 1.2 L5.65 1.2 Q6.2 1.2 6.35 2.2" fill="#61170e" fill-rule="evenodd" stroke="none"/>
      <path d="M5.45 8.9 Q3.9 10.0 -0.9 10.6 -7.8 11.55 -14.75 9.75 -15.45 9.25 -15.0 8.5 -9.75 10.6 -2.2 9.5 -1.75 7.9 -2.25 6.3 -2.95 4.4 -4.85 4.2 -6.85 2.95 -4.8 3.5 -1.35 6.0 4.95 2.4 5.4 3.45 4.95 3.6 -0.7 4.45 -0.65 9.4 3.0 9.45 5.9 7.4 L5.45 8.9" fill="#e23725" fill-rule="evenodd" stroke="none"/>
      <path d="M-10.05 -0.2 L-9.95 -0.3 Q-5.7 -2.3 -2.85 1.05 -2.2 1.7 -2.5 2.2 L-7.5 6.85 Q-7.8 7.2 -8.15 6.85 -9.45 5.65 -11.5 5.35 L-14.15 5.55 -14.75 5.4 Q-15.0 5.05 -14.75 4.8 -12.75 2.0 -10.05 -0.2" fill="#61170e" fill-rule="evenodd" stroke="none"/>
      <path d="M-7.85 5.85 Q-11.2 3.75 -13.25 4.5 -11.35 2.25 -9.1 0.4 L-4.75 0.25 Q-3.1 1.2 -3.55 1.8 L-7.85 5.85" fill="#e23725" fill-rule="evenodd" stroke="none"/>
      <path d="M-7.85 5.85 Q-11.2 3.75 -13.25 4.5 -11.35 2.25 -9.1 0.4 L-4.75 0.25 Q-3.1 1.2 -3.55 1.8 L-7.85 5.85" fill="#e23725" fill-rule="evenodd" stroke="none"/>
      <path d="M6.45 -3.8 Q6.45 -3.05 5.8 -2.55 7.3 -1.75 7.3 -0.85 L7.3 -0.75 Q7.2 0.8 3.1 2.05 -2.25 3.55 -3.95 2.15 -7.15 -0.05 -10.2 1.1 L-10.6 1.1 -10.9 0.95 -11.2 -0.05 Q-11.2 -0.8 -10.55 -1.35 -10.15 -1.8 -9.0 -2.15 -10.0 -2.75 -10.0 -3.55 L-9.95 -3.95 Q-9.55 -5.45 -7.4 -5.3 L-7.25 -5.3 -2.1 -5.0 4.1 -5.75 4.35 -5.8 Q6.25 -5.5 6.45 -4.05 L6.45 -3.8" fill="#49022e" fill-rule="evenodd" stroke="none"/>
      <path d="M4.45 -2.55 Q8.45 -0.7 2.95 1.1 L-3.1 1.4 Q-6.3 -0.75 -9.9 0.1 -10.15 -0.9 -9.0 -1.55 -7.9 -2.1 -6.6 -1.95 -8.4 -2.2 -8.55 -3.2 -8.75 -4.25 -7.65 -4.4 L-2.15 -4.05 4.2 -4.85 Q5.4 -4.6 5.45 -3.7 5.55 -2.85 4.45 -2.55" fill="#ff90c5" fill-rule="evenodd" stroke="none"/>
      <path d="M5.45 -3.7 Q5.55 -2.85 4.45 -2.55 8.45 -0.7 2.95 1.1 L-3.1 1.4 Q-6.3 -0.75 -9.9 0.1 L-9.9 -0.05 -6.95 -0.45 -2.75 -0.1 Q2.65 0.85 2.25 -1.2 -1.55 -0.6 -3.35 -1.2 0.05 -1.2 2.55 -2.9 3.55 -3.6 3.45 -4.6 L4.2 -4.85 Q5.4 -4.6 5.45 -3.7" fill="#c36bb8" fill-rule="evenodd" stroke="none"/>
      <path d="M-8.15 16.55 Q-9.35 15.4 -9.35 13.7 -9.35 12.1 -8.15 10.95 -6.9 9.75 -5.2 9.75 -3.45 9.75 -2.25 10.95 -1.0 12.1 -1.0 13.7 -1.0 15.4 -2.25 16.55 -3.45 17.65 -5.2 17.65 -6.95 17.65 -8.15 16.55" fill="#49022e" fill-rule="evenodd" stroke="none"/>
      <path d="M-5.2 16.7 Q-8.4 16.7 -8.4 13.7 -8.4 10.7 -5.2 10.7 -2.05 10.7 -2.05 13.7 -2.05 16.7 -5.2 16.7" fill="#ffffff" fill-rule="evenodd" stroke="none"/>
      <path d="M-6.05 15.2 Q-6.05 11.6 -3.65 11.05 -2.05 11.95 -2.05 13.7 -2.05 16.7 -5.2 16.7 -7.25 16.7 -8.1 14.95 L-6.05 15.2" fill="#fec6fd" fill-rule="evenodd" stroke="none"/>
      <path d="M-2.7 11.2 Q-5.8 10.5 -6.25 13.7 -6.65 16.8 -3.3 16.65" fill="none" stroke="#5c1d3f" stroke-linecap="round" stroke-linejoin="round" stroke-width="0.4"/>
      <path d="M2.05 14.45 Q0.85 13.3 0.85 11.6 0.85 10.0 2.05 8.85 3.3 7.65 5.0 7.65 6.75 7.65 7.95 8.85 9.2 10.0 9.2 11.6 9.2 13.3 7.95 14.45 6.75 15.55 5.0 15.55 3.25 15.55 2.05 14.45" fill="#49022e" fill-rule="evenodd" stroke="none"/>
      <path d="M5.0 14.6 Q1.8 14.6 1.8 11.6 1.8 8.6 5.0 8.6 8.15 8.6 8.15 11.6 8.15 14.6 5.0 14.6" fill="#ffffff" fill-rule="evenodd" stroke="none"/>
      <path d="M4.15 13.15 Q4.15 9.55 6.55 9.0 8.15 9.9 8.15 11.65 8.15 14.65 5.0 14.65 3.0 14.65 2.1 12.9 L4.15 13.15" fill="#fec6fd" fill-rule="evenodd" stroke="none"/>
      <path d="M7.5 9.1 Q4.4 8.4 3.95 11.6 3.55 14.7 6.9 14.55" fill="none" stroke="#5c1d3f" stroke-linecap="round" stroke-linejoin="round" stroke-width="0.4"/>
      <path d="M-2.25 -2.5 L-5.45 -3.0 -8.4 -2.8 Q-8.75 -4.35 -5.55 -4.0 L2.05 -4.2 Q0.45 -2.4 -2.25 -2.5" fill="#ffe9e8" fill-rule="evenodd" stroke="none"/>
      <path d="M2.1 3.9 L2.1 4.1 Q0.3 4.75 -0.45 5.7 -1.05 6.4 -1.25 7.2 L-1.3 8.2 Q-1.35 8.7 -1.85 8.65 -1.65 7.6 -1.85 6.4 -2.95 4.65 -2.75 4.4 L-0.45 4.5 2.1 3.9" fill="#f5746e" fill-rule="evenodd" stroke="none"/>
      <path d="M-2.25 4.9 L-1.0 4.95 -1.55 6.1 Q-2.55 5.6 -2.25 4.9" fill="#ffffff" fill-rule="evenodd" stroke="none"/>
      <path d="M-6.9 1.45 Q-4.85 2.05 -5.15 2.5 L-6.75 2.65 -8.15 2.5 Q-10.0 2.9 -10.35 3.2 -11.55 4.1 -12.0 4.0 -12.05 3.45 -11.25 2.35 -10.5 1.35 -9.95 1.1 -9.0 0.75 -6.9 1.45" fill="#f5746e" fill-rule="evenodd" stroke="none"/>
      <path d="M-9.9 1.45 L-8.25 1.4 Q-7.9 1.95 -10.05 2.4 L-11.15 3.2 -11.25 2.5 Q-11.15 2.0 -9.9 1.45" fill="#ffffff" fill-rule="evenodd" stroke="none"/>
    </g>
  </defs>
</svg>
